X:1
T:Boccherini Minuet
T:Boccherini Minuet
T:Composed by Luigi Boccherini Arranged by Cameron Currie 
%%score 1 2 3 4
L:1/8
M:3/4
K:D
V:1 treble nm="Flute" snm="Fl."
V:2 treble transpose=-2 nm="B♭ Clarinet" snm="B♭ Cl."
V:3 treble transpose=-9 nm="Alto Saxophone" snm="A. Sax."
V:4 bass nm="Trombone" snm="Trb."
V:1
!mf! a/^g/a/b/ | .a !>!A2 c2 e | ed d2 d/c/d/e/ | .d !>!E2 B2 d | dc c2 !>!a>f | e z z2 !>!a>f | %6
 e z z2 !>!a>f | ^ge c.a .f.d | e2 z2 a/^g/a/b/ | .a !>!A2 c2 e | ed d2 d/c/d/e/ | .d !>!E2 B2 d | %12
 dc c2 !>!a>f | e z z2 !>!a>f | e z z2 !>!a>f | ^ge c.a .f.d | e2 z2!ff! !>!=c>E | B z z2 !>!A>E | %18
 ^G z z2 !>!=c>E | B z z2 !>!A>E | ^G z z2!mf! a/^g/a/b/ | .a !>!A2 c2 e | ed d2 d/c/d/e/ | %23
 .d !>!E2 B2 d | dc c2 !>!d>B | A z z2 !>!d>B | cA Fd B>d | A2 z4 |] %28
V:2
[K:E]!mf! b/^a/b/c'/ | .b !>!B2 d2 f | fe e2 e/d/e/f/ | .e !>!F2 c2 e | ed d2 !>!b>g | %5
 f z z2 !>!b>g | f z z2 !>!b>g | ^af d.b .g.e | f2 z2 b/^a/b/c'/ | .b !>!B2 d2 f | fe e2 e/d/e/f/ | %11
 .e !>!F2 c2 e | ed d2 !>!b>g | f z z2 !>!b>g | f z z2 !>!b>g | ^af d.b .g.e | f2 z2!ff! !>!=d>F | %17
 c z z2 !>!B>F | ^A z z2 !>!=d>F | c z z2 !>!B>F | ^A z z2!mf! b/^a/b/c'/ | .b !>!B2 d2 f | %22
 fe e2 e/d/e/f/ | .e !>!F2 c2 e | ed d2 !>!e>c | B z z2 !>!e>c | dB Ge c>e | B2 z4 |] %28
V:3
[K:B]!mp! f/^e/f/g/ | .f !>!F2 A2 c | cB B2 B/A/B/c/ | .B !>!c2 G2 B | BA A2 !>!f>d | %5
 c.^B .B.B !>!f>d | c.^B .B.B !>!f>d | ^ec A.f .d.B | c2 z2 f/^e/f/g/ | .f !>!F2 A2 c | %10
 cB B2 B/A/B/c/ | .B !>!c2 G2 B | BA A2 !>!f>d | c.^B .B.B !>!f>d | c.^B .B.B !>!f>d | %15
 ^ec A.f .d.B | c2 z2!f! !>!=a>c | g!mp!.c .c.c!f! !>!f>c | ^e!mp!.c .c.c!f! !>!=a>c | %19
 g!mp!.c .c.c!f! !>!f>c | ^e!mp!.c .c.c f/e/f/g/ | .f !>!F2 A2 c | cB B2 B/A/B/c/ | .B !>!c2 G2 B | %24
 BA A2 !>!B>G | F.^E .E.E !>!B>G | AF dB G>B | F2 z4 |] %28
V:4
!mp! A,/^G,/A,/B,/ | .A, !>!A,,2 C,2 E, | E,D, D,2 D,/C,/D,/E,/ | .D, !>!E,2 B,,2 D, | %4
 D,C, C,2 !>!A,>F, | E,.^D, .D,.D, !>!A,>F, | E,.^D, .D,.D, !>!A,>F, | ^G,E, C,.A, .F,.D, | %8
 E,2 z2 A,/^G,/A,/B,/ | .A, !>!A,,2 C,2 E, | E,D, D,2 D,/C,/D,/E,/ | .D, !>!E,2 B,,2 D, | %12
 D,C, C,2 !>!A,>F, | E,.^D, .D,.D, !>!A,>F, | E,.^D, .D,.D, !>!A,>F, | ^G,E, C,.A, .F,.D, | %16
 E,2 z2!f! !>!=C>E, | B,!mp!.E, .E,.E,!f! !>!A,>E, | ^G,!mp!.E, .E,.E,!f! !>!=C>E, | %19
 B,!mp!.E, .E,.E,!f! !>!A,>E, | ^G,!mp!.E, .E,.E, A,/G,/A,/B,/ | .A, !>!A,,2 C,2 E, | %22
 E,D, D,2 D,/C,/D,/E,/ | .D, !>!E,2 B,,2 D, | D,C, C,2 !>!D,>B,, | A,,.^G,, .G,,.G,, !>!D,>B,, | %26
 C,A,, F,D, B,,>D, | A,,2 z4 |] %28

